www/assets/icons/bar_chart.svg

<svg xmlns="http://www.w3.org/2000/svg" width="24" height="24" viewBox="0 0 24 24" fill='currentColor'><path d="M8 9H4v11h4zm12 4h-4v7h4zm-6-9h-4v16h4z"/></svg>

<svg width="24" height="24" viewBox="0 0 24 24" xmlns="http://www.w3.org/2000/svg" fill='currentColor'><path d="M8 9H4V20H8V9Z"/><path d="M20 13H16V20H20V13Z"/><path d="M14 4H10V20H14V4Z"/></svg>
